!!!!SEGMENT: Ric3005-Le_temps_qui_court.krn
!!!id: Ric3005
!!!AGN: Chanson
!!!voices: 3
!!!COM: Jean Richafort
!!!OTL: Le temps qui court
**kern	**kern	**kern	**kern
*part4	*part3	*part2	*part1
*staff4	*staff3	*staff2	*staff1
*I"Bassus	*I"Tenor	*I"Altus	*I"Superius
*I'B	*I'T	*I'A	*I'S
*clefF4	*clefGv2	*clefGv2	*clefG2
*k[]	*k[]	*k[]	*k[]
*C:	*C:	*C:	*C:
*M2/1	*M2/1	*M2/1	*M2/1
*met(C|)	*met(C|)	*met(C|)	*met(C|)
=1	=1	=1	=1
1r	1D	0r	0r
2r	2.F	.	.
2D	.	.	.
.	4G	.	.
=2	=2	=2	=2
2.F	1A	2r	1r
.	.	2D	.
4G	.	.	.
1A	2D	2.F	2r
.	[2F	.	2d
.	.	4G	.
=3	=3	=3	=3
2r	4F]	1A	2.f
.	4G	.	.
2D	2A	.	.
.	.	.	4g
[1F	1r	2r	1a
.	.	2D	.
=4	=4	=4	=4
2F]	2A	2F	1r
2E	2.c	2G	.
2C	.	1A	2r
.	4B	.	.
2D	[2A	.	2a
=5	=5	=5	=5
1E	2A]	1r	2cc
.	2G	.	2b
[1AA	2F	2r	2.a
.	2E	2A	.
.	.	.	4g
=6	=6	=6	=6
1AA]	2r	1.c	4f
.	.	.	4e
.	2.A	.	1ee
2r	.	.	.
.	4G	.	.
2D	4F	2B	[2dd
.	4E	.	.
=7	=7	=7	=7
1.F	4F	2.A	2dd]
.	4D	.	.
.	2.A	.	2cc
.	.	4G	.
.	.	4F	2dd
.	4B	4E	.
2E	[2c	[2e	[2g
=8	=8	=8	=8
2C	4c]	2e]	2g]
.	4B	.	.
2D	4A	1d	2f
.	4G	.	.
1AA	1A	.	1e
.	.	2c#i	.
=9	=9	=9	=9
0D	2r	2d	2d
.	2D	2f	2dd
.	2.F	2f	2dd
.	.	2f	2dd
.	4G	.	.
=10	=10	=10	=10
1r	2A	2e	4cc
.	.	.	4b
.	4D	2d	4a
.	4E	.	4g
2r	4F	2r	1a
.	4E	.	.
2D	4F	2f	.
.	4G	.	.
=11	=11	=11	=11
2D	4A	2f	2r
.	4B	.	.
2D	1A	2f	2a
1C	.	1e	2cc
.	2G	.	2cc
=12	=12	=12	=12
2AA	1A	1e	4cc
.	.	.	4b
2A	.	.	4cc
.	.	.	4dd
2A	1r	2r	2ee
2A	.	2A	2ff
=13	=13	=13	=13
2G	0r	2B	4ee
.	.	.	4dd
2A	.	2c	4cc
.	.	.	4b
2F	.	1d	2a
[2G	.	.	[2b-i
=14	=14	=14	=14
4G]	2r	2d	4b-]
4F	.	.	4a
4D	2d	1f	4f
4E	.	.	4g
2F	2d	.	2a
2G	2d	4e	[2b-i
.	.	4d	.
=15	=15	=15	=15
2A	2.c	2f	4b-]
.	.	.	4a
2AA	.	2.e	1a
.	8BL	.	.
.	8AJ	.	.
2.E	2c	.	.
.	.	4c	.
.	[2B	[2e	2g#i
4D	.	.	.
=16	=16	=16	=16
2C	4B]	4e]	1a
.	4A	4d	.
2AA	1A	2c	.
1E	.	1B	2r
.	2G#i	.	2ee
=17	=17	=17	=17
2r	1A	1A	2ee
2A	.	.	2ee
2A	1r	1r	2.ee
2A	.	.	.
.	.	.	4dd
=18	=18	=18	=18
2.A	0r	0r	2ee
.	.	.	2ff
4G	.	.	.
2A	.	.	2ee
2B-i	.	.	2dd
=19	=19	=19	=19
2A	0r	0r	2cc
4G	.	.	1ff
4F	.	.	.
1G	.	.	.
.	.	.	2ee
=20	=20	=20	=20
0F	2r	1r	1ff
.	2A	.	.
.	2A	2r	2r
.	2A	2A	2f
=21	=21	=21	=21
0r	2.A	2c	4f
.	.	.	4e
.	.	2c	4f
.	4G	.	4g
.	2F	2.c	2a
.	2E	.	[2g
.	.	4B	.
=22	=22	=22	=22
0r	2F	2A	2g]
.	2D	2F	1f
.	1C	2G	.
.	.	2G	2e
=23	=23	=23	=23
1r	1r	2F	1f
.	.	2c	.
1D	1A	2d	2r
.	.	[2f	2f
=24	=24	=24	=24
1C	1c	2f]	1g
.	.	4e	.
.	.	4d	.
1C	1c	1e	1g
=25	=25	=25	=25
1F	1c	0f	1a
2r	2r	.	1f
2F	[2c	.	.
=26	=26	=26	=26
2E	4c]	2r	1r
.	8BL	.	.
.	8AJ	.	.
2D	2B	2f	.
2C	2c	2e	2r
2D	[2A	2d	[2ff
=27	=27	=27	=27
[0AA	2A]	2.c	2ff]
.	4G	.	2ee
.	4F	4B	.
.	2E	4A	2cc
.	.	4G	.
.	[2c	2A	[2ee
=28	=28	=28	=28
0AA]	4c]	2.F	4ee]
.	4B	.	4dd
.	4A	.	1dd
.	4G	8EL	.
.	.	8DJ	.
.	1A	1E	.
.	.	.	2cc#i
=29	=29	=29	=29
1r	2r	1D	0dd
.	2D	.	.
2r	2.F	1r	.
2D	.	.	.
.	4G	.	.
=30	=30	=30	=30
2.F	1A	2r	1r
.	.	2D	.
4G	.	.	.
1A	2D	2.F	2r
.	[2F	.	2d
.	.	4G	.
=31	=31	=31	=31
2r	4F]	1A	2.f
.	4G	.	.
2D	2A	.	.
.	.	.	4g
[1F	1r	2r	1a
.	.	2D	.
=32	=32	=32	=32
2F]	2A	2F	1r
2E	2.c	2G	.
2C	.	1A	2r
.	4B	.	.
2D	[2A	.	2a
=33	=33	=33	=33
1E	2A]	1r	2cc
.	2G	.	2b
[1AA	2F	2r	2.a
.	2E	2A	.
.	.	.	4g
=34	=34	=34	=34
1AA]	2r	1.c	4f
.	.	.	4e
.	2.A	.	1ee
2r	.	.	.
.	4G	.	.
2D	4F	2B	[2dd
.	4E	.	.
=35	=35	=35	=35
1.F	4F	2.A	2dd]
.	4E	.	.
.	2.A	.	2cc
.	.	4G	.
.	.	4F	2dd
.	4B	4E	.
2E	[2c	[2e	[2g
=36	=36	=36	=36
2C	4c]	2e]	2g]
.	4B	.	.
2D	4A	1d	2f
.	4G	.	.
1AA	1A	.	1e
.	.	2c#i	.
=37	=37	=37	=37
1D	2r	0d	0d
.	2D	.	.
2r	2.F	.	.
2D	.	.	.
.	4G	.	.
=38	=38	=38	=38
2.F	1A	2r	1r
.	.	2D	.
4G	.	.	.
1A	2D	2.F	2r
.	[2F	.	2d
.	.	4G	.
=39	=39	=39	=39
2r	4F]	1A	2.f
.	4G	.	.
2D	2A	.	.
.	.	.	4g
[1F	1r	2r	1a
.	.	2D	.
=40	=40	=40	=40
2F]	2A	2F	1r
2E	2.c	2G	.
2C	.	1A	2r
.	4B	.	.
2D	[2A	.	2a
=41	=41	=41	=41
1E	2A]	1r	2cc
.	2G	.	2b
[1AA	2F	2r	2.a
.	2E	2A	.
.	.	.	4g
=42	=42	=42	=42
1AA]	2r	1.c	4f
.	.	.	4e
.	2.A	.	1ee
2r	.	.	.
.	4G	.	.
2D	4F	2B	[2dd
.	4E	.	.
=43	=43	=43	=43
1.F	4F	2.A	2dd]
.	4D	.	.
.	2.A	.	2cc
.	.	4G	.
.	.	4F	2dd
.	4B	4E	.
2E	[2c	[2e	[2g
=44	=44	=44	=44
2C	4c]	2e]	2g]
.	4B	.	.
2D	4A	1d	2f
.	4G	.	.
1AA	2.A	.	1e
.	.	2c#i	.
.	4G	.	.
=45	=45	=45	=45
0D	4F	2d	1d
.	4E	.	.
.	1F	2f	.
.	.	2f	2r
.	4E	2f	2dd
.	4D	.	.
=46	=46	=46	=46
1r	1A	1e	2dd
.	.	.	2cc
2r	1r	1d	1b
2G	.	.	.
=47	=47	=47	=47
2G	2r	0r	1a
2F	2d	.	.
2E	2d	.	1r
[2A	2c	.	.
=48	=48	=48	=48
2A]	1B	2r	1r
2G	.	2.d	.
2F	1A	.	2r
.	.	4c	.
2F	.	4B	2a
.	.	4A	.
=49	=49	=49	=49
1E	2r	1B	2a
.	2e	.	2g
2r	2.f	1A	2f
2A	.	.	2d
.	4e	.	.
=50	=50	=50	=50
1.A	2c	2r	1f
.	2d	2A	.
.	1e	2c	1e
2G	.	2B	.
=51	=51	=51	=51
2.F	4A	1.c	2r
.	4B	.	.
.	4c	.	2a
8EL	4d	.	.
8DJ	.	.	.
2C	2e	.	2.a
[2D	[2f	4B	.
.	.	4A	4g
=52	=52	=52	=52
4D]	4f]	2B	2f
4C	4e	.	.
2AA	2c	1A	2e
1BB	1d	.	1d
.	.	2G#i	.
=53	=53	=53	=53
1AA	0c	2A	2e
.	.	2A	2.ee
2r	.	2A	.
.	.	.	4dd
2A	.	2A	4cc
.	.	.	4b
=54	=54	=54	=54
2A	2r	1c	2a
2A	2A	.	2.cc
2.c	2A	2r	.
.	.	.	4b
.	2A	4F	4a
4B	.	4G	4g
=55	=55	=55	=55
4A	1.c	4A	1f
4G	.	4B	.
1A	.	4c	.
.	.	4d	.
.	.	4e	1r
.	.	4c	.
2G	2B	[2d	.
=56	=56	=56	=56
2.F	2.A	4d]	2r
.	.	4B	.
.	.	2c	2ff
4E	4G	.	.
2D	1A	2d	2ff
2C	.	2e	[2ee
=57	=57	=57	=57
2D	2F	2A	4ee]
.	.	.	4dd
2GG	2G	2B	1dd
1AA	1E	[1A	.
.	.	.	2cc#i
=58	=58	=58	=58
1D	2r	1A]	0dd
.	2D	.	.
2r	2.F	1r	.
2D	.	.	.
.	4G	.	.
=59	=59	=59	=59
2.F	1A	2r	1r
.	.	2D	.
4G	.	.	.
1A	2D	2.F	2r
.	[2F	.	2d
.	.	4G	.
=60	=60	=60	=60
2r	4F]	1A	2.f
.	4G	.	.
2D	2A	.	.
.	.	.	4g
[1F	1r	2r	1a
.	.	2D	.
=61	=61	=61	=61
2F]	2A	2F	1r
2E	2.c	2G	.
2C	.	1A	2r
.	4B	.	.
2D	[2A	.	2a
=62	=62	=62	=62
1E	2A]	1r	2cc
.	2G	.	2b
[1AA	2F	2r	2.a
.	2E	2A	.
.	.	.	4g
=63	=63	=63	=63
1AA]	2r	1.c	4f
.	.	.	4e
.	2.A	.	1ee
2r	.	.	.
.	4G	.	.
2D	4F	2B	[2dd
.	4E	.	.
=64	=64	=64	=64
1.F	4F	2.A	2dd]
.	4D	.	.
.	2.A	.	2cc
.	.	4G	.
.	.	4F	2dd
.	4B	4E	.
2E	[2c	[2e	[2g
=65	=65	=65	=65
2C	4c]	2e]	2g]
.	4B	.	.
2D	4A	1d	2f
.	4G	.	.
1AA	[1Al	.	1e
.	.	2c#i	.
=66	=66	=66	=66
00Dl	00A]	00dl	00dl
==	==	==	==
*-	*-	*-	*-
!!!system-decoration: [*]
!!!RDF**kern: i = editorial accidental
!!!RDF**kern: l = terminal long
!!!ENC: Benjamin Ory
!!!END: 2024/12/4
!!!EED: Benjamin Ory
!!!EEV: 2024/12/04
!!!YEC: Copyright 2024 Benjamin Ory, All Rights Reserved
!!!ONB: Translated from MusicXML on 2024/12/04